icon/gr/deploy.svg

<svg xmlns="http://www.w3.org/2000/svg" viewBox="0 0 24 24" height="1em" width="1em">
  <path fill="none" stroke="#000" stroke-width="2" d="M23,1 C23,1 16.471872,0.541707069 14,3 C13.9767216,3.03685748 10,7 10,7 L5,8 L2,10 L10,14 L14,22 L16,19 L17,14 C17,14 20.9631426,10.0232786 21,10 C23.4582929,7.5281282 23,1 23,1 Z M17,8 C16.4475,8 16,7.5525 16,7 C16,6.4475 16.4475,6 17,6 C17.5525,6 18,6.4475 18,7 C18,7.5525 17.5525,8 17,8 Z M7,17 C6,16 4,16 3,17 C2,18 2,22 2,22 C2,22 6,22 7,21 C8,20 8,18 7,17 Z"/>
</svg>

<svg xmlns="http://www.w3.org/2000/svg" width="24" height="24"><path fill="none" stroke="#000" stroke-width="2" d="M23 1s-6.528-.458-9 2c-.023.037-4 4-4 4L5 8l-3 2 8 4 4 8 2-3 1-5s3.963-3.977 4-4c2.458-2.472 2-9 2-9Zm-6 7a1 1 0 1 1 0-2 1 1 0 0 1 0 2ZM7 17c-1-1-3-1-4 0s-1 5-1 5 4 0 5-1 1-3 0-4Z"/></svg>
